assets/img/socialmedia/linkedin.svg

<svg xmlns="http://www.w3.org/2000/svg" viewBox="0 0 448 512"><!--!Font Awesome Free 7.0.0 by @fontawesome - https://fontawesome.com License - https://fontawesome.com/license/free Copyright 2025 Fonticons, Inc.--><path fill="#FFF" d="M64 32C28.7 32 0 60.7 0 96L0 416c0 35.3 28.7 64 64 64l320 0c35.3 0 64-28.7 64-64l0-320c0-35.3-28.7-64-64-64L64 32zm5 170.2l66.5 0 0 213.8-66.5 0 0-213.8zm71.7-67.7a38.5 38.5 0 1 1 -77 0 38.5 38.5 0 1 1 77 0zM317.9 416l0-104c0-24.8-.5-56.7-34.5-56.7-34.6 0-39.9 27-39.9 54.9l0 105.8-66.4 0 0-213.8 63.7 0 0 29.2 .9 0c8.9-16.8 30.6-34.5 62.9-34.5 67.2 0 79.7 44.3 79.7 101.9l0 117.2-66.4 0z"/></svg>

<svg xmlns="http://www.w3.org/2000/svg" viewBox="0 0 448 512"><!--! Font Awesome Free 7.0.1 by @fontawesome - https://fontawesome.com License - https://fontawesome.com/license/free (Icons: CC BY 4.0, Fonts: SIL OFL 1.1, Code: MIT License) Copyright 2025 Fonticons, Inc.--><path fill="currentColor" d="M64 32C28.7 32 0 60.7 0 96v320c0 35.3 28.7 64 64 64h320c35.3 0 64-28.7 64-64V96c0-35.3-28.7-64-64-64zm5 170.2h66.5V416H69zm71.7-67.7a38.5 38.5 0 1 1-77 0 38.5 38.5 0 1 1 77 0M317.9 416V312c0-24.8-.5-56.7-34.5-56.7-34.6 0-39.9 27-39.9 54.9V416h-66.4V202.2h63.7v29.2h.9c8.9-16.8 30.6-34.5 62.9-34.5 67.2 0 79.7 44.3 79.7 101.9V416z"/></svg>
